X: 1239
T: the Jolly Journeyman
M: C|
L: 1/8
R: reel
B: O'Neill's 1850 #1239
Z: Trish O'Neil
K: G
|:\
G2(BG) ABcA | eBcA eBcA |\
G2(BG) ABcA | eBcA BGG2 :|\
g2(fg) agfd | eBcA eBcA |
g2(fg) agfd | eBcA eBcA ||\
g2(fg) agfd | eBcA (BG)G2 |\
G2(BG) ABcA | eBcA BGG2 |]
